X:34
T:Apley House
C:Henry Playford, 1703
S:Colin Hume's website,  colinhume.com  - chords can also be printed below the stave.
Q:1/2=120
M:2/2
R:Reel
L:1/8
K:G
P:A
|: "G"B2G2 Bcd2 | "C"e2c2 "D7"A2c2 | "G"B2G2 g2G2 |1 "Em"B4 "D7"d4 :|2 "Em"B4 "G"d4 |
P:B
|: "D"f2a2 bagf | "Em"e2g2 "A7"g2fe | "D"f2a2 "G"bagf | "A7"e4 "D"d4 :|
P:C
|: "C"e2c2 cdec | "G"d2B2 BcdB | "Em"g2G2 G2A2 |1 "G"B4 "G7"d4 :|2 "G"B4 "D"d4 |]

